dist/img/sprites/q-input-required.svg

<svg width="10" height="10" viewBox="0 0 10 10" fill="none" xmlns="http://www.w3.org/2000/svg">
<path d="M6.37426 5L10 6.9337L9.32748 8.09392L5.67252 6.07735V10H4.32748L4.35673 6.07735L0.701765 8.09392L0 6.9337L3.65497 5L0 3.0663L0.701765 1.87845L4.35673 3.92265L4.32748 0H5.67252V3.92265L9.32748 1.87845L10 3.0663L6.37426 5Z" fill="#DD131C"/>
</svg>

<svg width="10" height="10" viewBox="0 0 10 10" fill="none" xmlns="http://www.w3.org/2000/svg"><path d="M6.374 5L10 6.934l-.673 1.16-3.654-2.017V10H4.327l.03-3.923L.702 8.094 0 6.934 3.655 5 0 3.066l.702-1.188 3.655 2.045L4.327 0h1.346v3.923l3.654-2.045L10 3.066 6.374 5z" fill="#DD131C"/></svg>
